src/assets/filled/CardSend.svg

<?xml version="1.0" encoding="UTF-8"?>
<svg width="24" height="24" viewBox="0 0 24 24" xmlns="http://www.w3.org/2000/svg">
 <path d="m19.97 1.75h-2.94c-1.27 0-2.03 0.76-2.03 2.03v2.94c0 1.27 0.76 2.03 2.03 2.03h2.94c1.27 0 2.03-0.76 2.03-2.03v-2.94c0-1.27-0.76-2.03-2.03-2.03zm0.22 3.31c-0.12 0.12-0.28 0.18-0.44 0.18s-0.32-0.06-0.44-0.18l-0.18-0.18v2.24c0 0.35-0.28 0.63-0.63 0.63s-0.63-0.28-0.63-0.63v-2.24l-0.18 0.18c-0.24 0.24-0.64 0.24-0.88 0s-0.24-0.64 0-0.88l1.25-1.25c0.05-0.05 0.12-0.09 0.19-0.12 0.02-0.01 0.04-0.01 0.06-0.02 0.05-0.02 0.1-0.03 0.16-0.03h0.06c0.07 0 0.13 0.01 0.2 0.04h0.02c0.07 0.03 0.13 0.07 0.18 0.12 0.01 0.01 0.01 0.01 0.02 0.01l1.25 1.25c0.24 0.24 0.24 0.64-0.01 0.88z"/>
 <path d="m2 11.46v5c0 2.29 1.85 4.14 4.14 4.14h11.71c2.29 0 4.15-1.86 4.15-4.15v-4.99c0-0.67-0.54-1.21-1.21-1.21h-17.58c-0.67 0-1.21 0.54-1.21 1.21zm6 5.79h-2c-0.41 0-0.75-0.34-0.75-0.75s0.34-0.75 0.75-0.75h2c0.41 0 0.75 0.34 0.75 0.75s-0.34 0.75-0.75 0.75zm6.5 0h-4c-0.41 0-0.75-0.34-0.75-0.75s0.34-0.75 0.75-0.75h4c0.41 0 0.75 0.34 0.75 0.75s-0.34 0.75-0.75 0.75z"/>
 <path d="m13.5 4.61v2.93c0 0.67-0.54 1.21-1.21 1.21h-9.08c-0.68 0-1.21-0.56-1.21-1.23 0.01-1.13 0.46-2.16 1.21-2.91s1.79-1.21 2.93-1.21h6.15c0.67 0 1.21 0.54 1.21 1.21z"/>
</svg>

<svg width="24" height="24" viewBox="0 0 24 24"  xmlns="http://www.w3.org/2000/svg">
<path d="M19.97 1.75H17.03C15.76 1.75 15 2.51 15 3.78V6.72C15 7.99 15.76 8.75 17.03 8.75H19.97C21.24 8.75 22 7.99 22 6.72V3.78C22 2.51 21.24 1.75 19.97 1.75ZM20.19 5.06C20.07 5.18 19.91 5.24 19.75 5.24C19.59 5.24 19.43 5.18 19.31 5.06L19.13 4.88V7.12C19.13 7.47 18.85 7.75 18.5 7.75C18.15 7.75 17.87 7.47 17.87 7.12V4.88L17.69 5.06C17.45 5.3 17.05 5.3 16.81 5.06C16.57 4.82 16.57 4.42 16.81 4.18L18.06 2.93C18.11 2.88 18.18 2.84 18.25 2.81C18.27 2.8 18.29 2.8 18.31 2.79C18.36 2.77 18.41 2.76 18.47 2.76C18.49 2.76 18.51 2.76 18.53 2.76C18.6 2.76 18.66 2.77 18.73 2.8C18.74 2.8 18.74 2.8 18.75 2.8C18.82 2.83 18.88 2.87 18.93 2.92C18.94 2.93 18.94 2.93 18.95 2.93L20.2 4.18C20.44 4.42 20.44 4.82 20.19 5.06Z" />
<path d="M2 11.46V16.46C2 18.75 3.85 20.6 6.14 20.6H17.85C20.14 20.6 22 18.74 22 16.45V11.46C22 10.79 21.46 10.25 20.79 10.25H3.21C2.54 10.25 2 10.79 2 11.46ZM8 17.25H6C5.59 17.25 5.25 16.91 5.25 16.5C5.25 16.09 5.59 15.75 6 15.75H8C8.41 15.75 8.75 16.09 8.75 16.5C8.75 16.91 8.41 17.25 8 17.25ZM14.5 17.25H10.5C10.09 17.25 9.75 16.91 9.75 16.5C9.75 16.09 10.09 15.75 10.5 15.75H14.5C14.91 15.75 15.25 16.09 15.25 16.5C15.25 16.91 14.91 17.25 14.5 17.25Z" />
<path d="M13.5 4.61002V7.54002C13.5 8.21002 12.96 8.75002 12.29 8.75002H3.21C2.53 8.75002 2 8.19002 2 7.52002C2.01 6.39002 2.46 5.36002 3.21 4.61002C3.96 3.86002 5 3.40002 6.14 3.40002H12.29C12.96 3.40002 13.5 3.94002 13.5 4.61002Z" />
</svg>
